X: 41235
T: Trowie Dart, The
R: reel
M: 4/4
K: Gmajor
|:f|gd^cd Bd^cd|gdeg dBAB|cEFG ABGB|c2Bc Adef|
g2dB Ad^cd|gdeg dBAB|cEFG ABGB|cddf {f}g3:|
|:^c|d2BG DGBd|=cBAG FDDB,|CB,CE DE=F^F|GFGB ABc^c|
d^cdB =cAAf|gdBd (Bc2)e|dB (B_B A)ed(=B|c)(^c d)f (fg2):|

